X: 1
T: Swinging on a Gate
Z: 1997 by John Chambers <jc:trillian.mit.edu>
M: C|
L: 1/8
K: G
|:"G"gedB G2AB | "Am"cABG AGEG | "G"DGBd g2g2 | "D7"fgag fdef |
| "G"gedB G2AB | "C"cABG AGEG | "Am"cABG AGEG | "D7"DGGF "G"G4 :|
|:"G"gfga bagf | "Em"gfed B2AG | "Am"EAAB cBAG | EAAB "D7"cdef |
| "G"gfga bagf | "Em"gfed edBd | "Am"cABG AGEG | "D7"DGGF "G"G4 :|
